X: 38522
T: Stenselepolskan
R: three-two
M: 3/2
K: Gminor
M:3/4
|:G,B BA/B/ c/B/A/G/|FA AG/A/ B/A/G/F/|EE/F/ GG/A/ BA/G/|^FGAF GD B,CB,A,|
G,B BA/B/ c/B/A/G/|FA AG/A/ B/A/G/F/|EE/F/ GG/A/ BA/G/|^F/G/A/F/ G2 G2:|
|:G,d d^c/d/ ed|G,c cB/c/ d/c/B/A/|G/^F/G/A/ B/A/B/c/ dd/d/|^cA/c/ d2 d2|
G,d d^c/d/ ed|G,c cB/c/ d/c/B/A/|G/^F/G/A/ B/A/B/c/ dd/d/|^cA/^F/ G2 G2:|

